icons/svg/topo/topo_big_wheel.svg

<?xml version="1.0" encoding="UTF-8" standalone="no"?>
<!-- Created with Inkscape (http://www.inkscape.org/) -->

<svg
   xmlns:dc="http://purl.org/dc/elements/1.1/"
   xmlns:cc="http://creativecommons.org/ns#"
   xmlns:rdf="http://www.w3.org/1999/02/22-rdf-syntax-ns#"
   xmlns:svg="http://www.w3.org/2000/svg"
   xmlns="http://www.w3.org/2000/svg"
   xmlns:sodipodi="http://sodipodi.sourceforge.net/DTD/sodipodi-0.dtd"
   xmlns:inkscape="http://www.inkscape.org/namespaces/inkscape"
   version="1.0"
   width="580"
   height="580"
   id="svg2"
   sodipodi:version="0.32"
   inkscape:version="0.48.4 r9939"
   sodipodi:docname="attraction_carouselsvg.svg"
   inkscape:output_extension="org.inkscape.output.svg.inkscape">
  <metadata
     id="metadata2975">
    <rdf:RDF>
      <cc:Work
         rdf:about="">
        <dc:format>image/svg+xml</dc:format>
        <dc:type
           rdf:resource="http://purl.org/dc/dcmitype/StillImage" />
        <cc:license
           rdf:resource="http://web.resource.org/cc/PublicDomain" />
        <dc:language>en</dc:language>
        <dc:title></dc:title>
      </cc:Work>
    </rdf:RDF>
  </metadata>
  <sodipodi:namedview
     inkscape:window-height="1004"
     inkscape:window-width="1920"
     inkscape:pageshadow="2"
     inkscape:pageopacity="0.0"
     guidetolerance="10.0"
     gridtolerance="10.0"
     objecttolerance="10.0"
     borderopacity="1.0"
     bordercolor="#666666"
     pagecolor="#ffffff"
     id="base"
     inkscape:zoom="0.65172414"
     inkscape:cx="487.52761"
     inkscape:cy="371.8054"
     inkscape:window-x="1680"
     inkscape:window-y="0"
     inkscape:current-layer="svg2"
     showgrid="false"
     inkscape:window-maximized="1" />
  <defs
     id="defs4">
    <inkscape:perspective
       sodipodi:type="inkscape:persp3d"
       inkscape:vp_x="0 : 290 : 1"
       inkscape:vp_y="0 : 1000 : 0"
       inkscape:vp_z="580 : 290 : 1"
       inkscape:persp3d-origin="290 : 193.33333 : 1"
       id="perspective2441" />
    <inkscape:perspective
       id="perspective3452"
       inkscape:persp3d-origin="30 : 20 : 1"
       inkscape:vp_z="60 : 30 : 1"
       inkscape:vp_y="0 : 1000 : 0"
       inkscape:vp_x="0 : 30 : 1"
       sodipodi:type="inkscape:persp3d" />
    <symbol
       viewBox="244.5 110 489 219.9"
       id="symbol-university">
      <path
         id="path4460"
         d="M79,43l57,119c0,0,21-96,104-96s124,106,124,106l43-133l82-17L0,17L79,43z" />
      <path
         id="path4462"
         d="M94,176l-21,39"
         stroke-width="20"
         stroke="#000000"
         fill="none" />
      <path
         id="path4464"
         d="M300,19c0,10.5-22.6,19-50.5,19S199,29.5,199,19s22.6-19,50.5-19S300,8.5,300,19z" />
      <path
         id="path4466"
         d="M112,216l-16-38L64,88c0,0-9-8-4-35s16-24,16-24"
         stroke-width="20"
         stroke="#000000"
         ill="none" />
    </symbol>
    <inkscape:perspective
       id="perspective4471"
       inkscape:persp3d-origin="372.04724 : 350.78739 : 1"
       inkscape:vp_z="744.09448 : 526.18109 : 1"
       inkscape:vp_y="0 : 1000 : 0"
       inkscape:vp_x="0 : 526.18109 : 1"
       sodipodi:type="inkscape:persp3d" />
    <inkscape:perspective
       id="perspective4668"
       inkscape:persp3d-origin="6 : 4 : 1"
       inkscape:vp_z="12 : 6 : 1"
       inkscape:vp_y="0 : 1000 : 0"
       inkscape:vp_x="0 : 6 : 1"
       sodipodi:type="inkscape:persp3d" />
    <inkscape:perspective
       id="perspective4904"
       inkscape:persp3d-origin="16 : 10.666667 : 1"
       inkscape:vp_z="32 : 16 : 1"
       inkscape:vp_y="0 : 1000 : 0"
       inkscape:vp_x="0 : 16 : 1"
       sodipodi:type="inkscape:persp3d" />
  </defs>
  <g
     id="g1327">
    <path
       d="M 66.275,1.768 C 24.94,1.768 1.704,23.139 1.704,66.804 L 1.704,516.927 C 1.704,557.771 22.599,579.156 63.896,579.156 L 515.92,579.156 C 557.227,579.156 578.149,558.841 578.149,516.927 L 578.149,66.804 C 578.149,24.203 557.227,1.768 514.628,1.768 C 514.624,1.768 66.133,1.625 66.275,1.768 z "
       style="fill:#111;stroke:#eee;stroke-width:3.40799999"
       id="path1329" />
  </g>
  <rect
     y="-69.882286"
     x="207.25069"
     style="fill:none"
     width="376.44794"
     height="376.44794"
     id="rect3" />
  <polyline
     style="fill:none;stroke:#ffffff;stroke-width:3;stroke-linejoin:round;stroke-miterlimit:10;stroke-opacity:1"
     stroke-miterlimit="10"
     points="7,25 13,12 19,25   "
     id="polyline3"
     transform="matrix(19.195838,0,0,19.195838,40.454133,35.655146)" />
  <circle
     style="fill:#ffffff;fill-opacity:1"
     sodipodi:ry="3"
     sodipodi:rx="3"
     sodipodi:cy="12"
     sodipodi:cx="13"
     cx="13"
     cy="12"
     r="3"
     id="circle5"
     transform="matrix(19.195838,0,0,19.195838,40.454133,35.655146)" />
  <line
     style="fill:#ffffff;fill-opacity:1;stroke:#ffffff;stroke-width:38.39167786;stroke-linejoin:round;stroke-miterlimit:10;stroke-opacity:1"
     stroke-miterlimit="10"
     x1="347.58746"
     y1="515.55127"
     x2="462.76248"
     y2="515.55127"
     id="line7" />
  <line
     style="fill:#ffffff;fill-opacity:1;stroke:#ffffff;stroke-width:38.39167786;stroke-linejoin:round;stroke-miterlimit:10;stroke-opacity:1"
     stroke-miterlimit="10"
     x1="117.23746"
     y1="515.55127"
     x2="232.41251"
     y2="515.55127"
     id="line9" />
  <path
     style="fill:#ffffff;fill-opacity:1"
     inkscape:connector-curvature="0"
     d="m 501.15426,227.61354 h -3.83916 c -5.75876,-30.71334 -17.27626,-57.58752 -34.55251,-82.5421 v -32.63293 c 0,-9.59792 -7.67834,-19.195839 -19.19584,-19.195839 H 412.85341 C 385.97923,75.96641 359.10506,64.448909 328.39172,58.690151 v -3.839163 c 0,-11.517503 -7.67834,-19.195841 -19.19584,-19.195841 H 270.8042 c -9.59792,0 -19.19584,7.678338 -19.19584,19.195841 v 3.839163 c -30.71334,5.758758 -57.58751,17.276259 -82.5421,34.552521 h -32.63294 c -11.5175,0 -19.19583,7.678338 -19.19583,19.195838 v 32.63293 c -17.276254,24.95458 -28.793756,51.82876 -34.552512,82.5421 h -3.839164 c -9.59792,0 -19.195841,7.67834 -19.195841,19.19584 v 38.39168 c 0,11.5175 7.678339,19.19584 19.195841,19.19584 h 3.839164 c 5.758756,30.71334 17.276258,57.58752 34.552512,82.5421 v 32.63293 c 0,11.5175 7.67833,19.19584 19.19583,19.19584 h 32.63294 c 24.95459,17.27626 51.82876,28.79376 82.5421,34.55251 v 3.83917 c 0,9.59791 7.67833,19.19583 19.19584,19.19583 h 38.39168 c 9.59792,0 19.19584,-7.67833 19.19584,-19.19583 v -3.83917 c 30.71334,-5.75875 57.58751,-17.27625 82.54211,-34.55251 h 32.63292 c 9.59792,0 19.19584,-7.67834 19.19584,-19.19584 v -30.71334 c 17.27625,-26.87417 28.79375,-53.74835 34.55251,-84.46169 h 3.83916 c 9.59792,0 19.19584,-7.67834 19.19584,-19.19584 v -38.39168 c 0,-9.59792 -7.67834,-19.19584 -19.19584,-19.19584 z M 443.56675,112.43851 v 19.19583 h -38.39168 v -19.19583 h 38.39168 z M 270.8042,54.850988 h 38.39168 v 19.19584 H 270.8042 V 54.850988 z M 136.43332,112.43851 H 174.825 v 19.19583 H 136.43332 V 112.43851 z M 78.845814,266.00523 v -19.19585 h 38.391676 v 19.19585 H 78.845814 z M 136.43332,400.37609 V 381.18025 H 174.825 v 19.19584 h -38.39168 z m 172.76256,57.58752 H 270.8042 v -19.19584 h 38.39168 v 19.19584 z m 134.37087,-57.58752 h -38.39168 v -19.19584 h 38.39168 v 19.19584 z m -5.75876,-38.39167 h -32.63292 c -9.59792,0 -19.19584,7.67833 -19.19584,19.19583 v 30.71334 c -17.27625,11.5175 -36.47209,19.19584 -57.58751,24.9546 v 1.91958 c 0,-11.5175 -7.67834,-19.19584 -19.19584,-19.19584 H 270.8042 c -9.59792,0 -19.19584,7.67834 -19.19584,19.19584 -21.11543,-5.75876 -40.31126,-13.43709 -57.58751,-24.9546 v -32.63292 c 0,-9.59792 -7.67834,-19.19583 -19.19585,-19.19583 h -30.71334 c -11.5175,-17.27626 -19.19584,-36.4721 -24.95458,-57.58752 h -1.91959 c 9.59791,0 19.19583,-7.67834 19.19583,-19.19584 v -38.39168 c 0,-9.59792 -7.67832,-19.19584 -19.19583,-19.19584 3.83917,-21.11542 13.43709,-40.31126 24.95459,-57.58752 H 174.825 c 9.59792,0 19.19585,-7.67832 19.19585,-19.19584 v -30.71334 c 17.27625,-11.5175 36.47208,-19.19583 57.58751,-24.954586 v -1.919582 c 0,9.597918 7.67833,19.195838 19.19584,19.195838 h 38.39168 c 9.59792,0 19.19584,-7.67834 19.19584,-19.195838 21.11542,5.758745 40.31126,13.437088 57.58751,24.954588 v 32.63292 c 0,11.51752 7.67834,19.19584 19.19584,19.19584 h 30.71334 c 11.5175,17.27626 19.19584,36.4721 24.95459,57.58752 l 0,0 c -9.59791,0 -17.27625,7.67834 -17.27625,19.19584 v 38.39168 c 0,11.5175 7.67834,19.19584 19.19584,19.19584 -3.83917,21.11542 -13.43709,40.31126 -24.9546,57.58752 z m 63.34627,-95.97919 h -38.39167 v -19.19585 h 38.39167 v 19.19585 z"
     id="path11" />
  <rect
     style="fill:none"
     y="35.655308"
     x="40.454086"
     width="499.09183"
     height="499.09183"
     id="rect13" />
</svg>

<svg width="580" height="580" viewBox="0 0 580 580" fill="none" xmlns="http://www.w3.org/2000/svg">
<g clip-path="url(#clip0)">
<path d="M66.2751 1.7679C24.9401 1.7679 1.7041 23.1389 1.7041 66.8039V516.927C1.7041 557.771 22.5991 579.156 63.8961 579.156H515.92C557.227 579.156 578.149 558.841 578.149 516.927V66.8039C578.149 24.2029 557.227 1.7679 514.628 1.7679C514.624 1.7679 66.1331 1.6249 66.2751 1.7679Z" fill="#111111" stroke="#EEEEEE" stroke-width="3.408"/>
<path d="M174.825 515.551L290 266.005L405.175 515.551" stroke="white" stroke-width="57.5875" stroke-miterlimit="10" stroke-linejoin="round"/>
<path d="M290 323.593C321.805 323.593 347.588 297.81 347.588 266.005C347.588 234.201 321.805 208.418 290 208.418C258.195 208.418 232.413 234.201 232.413 266.005C232.413 297.81 258.195 323.593 290 323.593Z" fill="white"/>
<path d="M347.587 515.551H462.762" stroke="white" stroke-width="38.3917" stroke-miterlimit="10" stroke-linejoin="round"/>
<path d="M117.237 515.551H232.412" stroke="white" stroke-width="38.3917" stroke-miterlimit="10" stroke-linejoin="round"/>
<path d="M501.154 227.613H497.315C491.556 196.9 480.039 170.026 462.763 145.071V112.438C462.763 102.84 455.084 93.2425 443.567 93.2425H412.853C385.979 75.9663 359.105 64.4488 328.392 58.69V54.8509C328.392 43.3334 320.713 35.655 309.196 35.655H270.804C261.206 35.655 251.608 43.3334 251.608 54.8509V58.69C220.895 64.4488 194.021 75.9663 169.066 93.2426H136.433C124.916 93.2426 117.237 100.921 117.237 112.438V145.071C99.9612 170.026 88.4437 196.9 82.6849 227.613H78.8457C69.2478 227.613 59.6499 235.292 59.6499 246.809V285.201C59.6499 296.718 67.3282 304.397 78.8457 304.397H82.6849C88.4437 335.11 99.9612 361.984 117.237 386.939V419.572C117.237 431.089 124.916 438.768 136.433 438.768H169.066C194.021 456.044 220.895 467.561 251.608 473.32V477.159C251.608 486.757 259.287 496.355 270.804 496.355H309.196C318.794 496.355 328.392 488.677 328.392 477.159V473.32C359.105 467.561 385.979 456.044 410.934 438.768H443.567C453.165 438.768 462.763 431.089 462.763 419.572V388.858C480.039 361.984 491.556 335.11 497.315 304.397H501.154C510.752 304.397 520.35 296.718 520.35 285.201V246.809C520.35 237.211 512.672 227.613 501.154 227.613V227.613ZM443.567 112.438V131.634H405.175V112.438H443.567V112.438ZM270.804 54.8509H309.196V74.0467H270.804V54.8509ZM136.433 112.438H174.825V131.634H136.433V112.438ZM78.8457 266.005V246.809H117.237V266.005H78.8457ZM136.433 400.376V381.18H174.825V400.376H136.433V400.376ZM309.196 457.964H270.804V438.768H309.196V457.964ZM443.567 400.376H405.175V381.18H443.567V400.376ZM437.808 361.984H405.175C395.577 361.984 385.979 369.663 385.979 381.18V411.893C368.703 423.411 349.507 431.089 328.392 436.848V438.768C328.392 427.25 320.713 419.572 309.196 419.572H270.804C261.206 419.572 251.608 427.25 251.608 438.768C230.493 433.009 211.297 425.331 194.021 413.813V381.18C194.021 371.582 186.342 361.984 174.825 361.984H144.112C132.594 344.708 124.916 325.512 119.157 304.397H117.237C126.835 304.397 136.433 296.718 136.433 285.201V246.809C136.433 237.211 128.755 227.613 117.237 227.613C121.077 206.498 130.675 187.302 142.192 170.026H174.825C184.423 170.026 194.021 162.348 194.021 150.83V120.117C211.297 108.599 230.493 100.921 251.608 95.1621V93.2426C251.608 102.84 259.287 112.438 270.804 112.438H309.196C318.794 112.438 328.392 104.76 328.392 93.2426C349.507 99.0013 368.703 106.68 385.979 118.197V150.83C385.979 162.348 393.658 170.026 405.175 170.026H435.888C447.406 187.302 455.084 206.498 460.843 227.613C451.245 227.613 443.567 235.292 443.567 246.809V285.201C443.567 296.718 451.245 304.397 462.763 304.397C458.923 325.512 449.325 344.708 437.808 361.984V361.984ZM501.154 266.005H462.763V246.809H501.154V266.005Z" fill="white"/>
</g>
<defs>
<clipPath id="clip0">
<path d="M0 0H580V580H0V0Z" fill="white"/>
</clipPath>
</defs>
</svg>
